resources/icons/16px/panel.svg

<svg xmlns="http://www.w3.org/2000/svg" viewBox="0 0 16 16">
  <path d="M1 16h14c.55 0 1-.45 1-1V1c0-.55-.45-1-1-1H1C.45 0 0 .45 0 1v14c0 .55.45 1 1 1M2 2h12v12H2zm7 11h4V3H9z"/>
</svg>

<svg xmlns="http://www.w3.org/2000/svg" viewBox="0 0 16 16">
<path d="M1 16L15 16C15.55 16 16 15.55 16 15L16 1C16 0.45 15.55 -3.93403e-08 15 -8.74228e-08L1 -1.31134e-06C0.450001 -1.35942e-06 1.35942e-06 0.449999 1.31134e-06 0.999999L8.74228e-08 15C3.93402e-08 15.55 0.45 16 1 16ZM2 2L14 2L14 14L2 14L2 2ZM9 13L13 13L13 3L9 3L9 13Z" fill="#000000"/>
</svg>
